svgs/forkyz.svg

<svg xmlns="http://www.w3.org/2000/svg" viewBox="0 0 192 192"><path d="M166.905 16.5H25.095a8.599 8.599 0 0 0-6.078 2.517 8.599 8.599 0 0 0-2.517 6.078v141.81a8.6 8.6 0 0 0 4.297 7.444 8.6 8.6 0 0 0 4.298 1.151h141.81a8.6 8.6 0 0 0 7.444-4.297 8.6 8.6 0 0 0 1.151-4.298V25.095a8.599 8.599 0 0 0-2.517-6.078 8.599 8.599 0 0 0-6.078-2.517ZM96 175.5v-159M16.5 96h159M33.714 68.068h17.189M33.714 38.369l8.595-4.68m0 0v34.379" fill="none" stroke="#000" stroke-width="12" stroke-linecap="round" stroke-linejoin="round"/></svg>

<svg
    xmlns="http://www.w3.org/2000/svg"
    viewBox="0 0 192 192"
    id="vector">
    <path
        id="path"
        d="M 166.905 16.5 L 25.095 16.5 C 22.816 16.5 20.628 17.406 19.017 19.017 C 17.406 20.628 16.5 22.816 16.5 25.095 L 16.5 166.905 C 16.5 168.414 16.897 169.896 17.651 171.203 C 18.406 172.509 19.491 173.594 20.797 174.349 C 22.104 175.103 23.586 175.5 25.095 175.5 L 166.905 175.5 C 168.414 175.5 169.896 175.103 171.203 174.349 C 172.509 173.594 173.594 172.509 174.349 171.203 C 175.103 169.896 175.5 168.414 175.5 166.905 L 175.5 25.095 C 175.5 22.816 174.594 20.628 172.983 19.017 C 171.372 17.406 169.184 16.5 166.905 16.5 Z M 96 175.5 L 96 16.5 M 16.5 96 L 175.5 96 M 33.714 68.068 L 50.903 68.068 M 33.714 38.369 L 42.309 33.689 M 42.309 33.689 L 42.309 68.068"
        fill="none"
        stroke="#000000"
        stroke-width="12"
        stroke-linecap="round"
        stroke-linejoin="round"/>
</svg>
